; generated by Slic3r 0.9.10-dev on 2013-04-18 at 20:46:39

; layer_height = 0.2
; perimeters = 3
; top_solid_layers = 3
; bottom_solid_layers = 3
; fill_density = 0.4
; perimeter_speed = 30
; infill_speed = 60
; travel_speed = 130
; nozzle_diameter = 0.5
; filament_diameter = 1.75
; extrusion_multiplier = 1
; perimeters extrusion width = 0.85mm
; infill extrusion width = 1.02mm
; solid infill extrusion width = 0.85mm
; top infill extrusion width = 0.85mm
; first layer extrusion width = 0.64mm

G21 ; set units to millimeters
M107
M190 S90 ; wait for bed temperature to be reached
M104 S245 ; set temperature
G28 ; home all axes
M109 S245 ; wait for temperature to be reached
G90 ; use absolute coordinates
G92 E0
M82 ; use absolute distances for extrusion
G1 F1800.000 E-2.00000
G1 Z0.820 F7800.000
G92 E0
G1 X56.310 Y56.134
G1 Z0.320
G1 F1800.000 E2.00000
G1 X56.700 Y55.744 F540.000 E2.04476
G1 X57.370 Y55.154 E2.11720
G1 X57.830 Y54.804 E2.16411
G1 X58.650 Y54.274 E2.24334
G1 X59.160 Y53.994 E2.29055
G1 X60.070 Y53.574 E2.37188
G1 X60.590 Y53.384 E2.41681
G1 X61.480 Y53.134 E2.49183
G1 X62.040 Y53.014 E2.53830
G1 X62.960 Y52.884 E2.61370
G1 X63.990 Y52.824 E2.69743
G1 X96.000 Y52.824 E5.29500
G1 X97.030 Y52.884 E5.37872
G1 X97.890 Y52.994 E5.44908
G1 X98.430 Y53.104 E5.49380
G1 X99.470 Y53.404 E5.58164
G1 X100.020 Y53.614 E5.62941
G1 X100.800 Y53.974 E5.69912
G1 X101.300 Y54.244 E5.74524
G1 X102.140 Y54.794 E5.82671
G1 X102.590 Y55.134 E5.87248
G1 X103.280 Y55.734 E5.94668
G1 X103.690 Y56.144 E5.99374
G1 X104.290 Y56.834 E6.06794
G1 X104.630 Y57.284 E6.11371
G1 X105.180 Y58.124 E6.19518
G1 X105.450 Y58.624 E6.24129
G1 X105.810 Y59.434 E6.31322
G1 X106.010 Y59.964 E6.35919
G1 X106.290 Y60.914 E6.43956
G1 X106.410 Y61.474 E6.48604
G1 X106.540 Y62.394 E6.56144
G1 X106.600 Y63.424 E6.64516
G1 X106.600 Y95.424 E9.24193
G1 X106.560 Y96.334 E9.31584
G1 X106.410 Y97.434 E9.40593
G1 X106.280 Y98.014 E9.45417
G1 X106.010 Y98.894 E9.52886
G1 X105.810 Y99.424 E9.57483
G1 X105.450 Y100.234 E9.64676
G1 X105.180 Y100.734 E9.69287
G1 X104.620 Y101.594 E9.77615
G1 X104.270 Y102.054 E9.82306
G1 X103.680 Y102.724 E9.89550
G1 X103.290 Y103.114 E9.94026
G1 X102.620 Y103.704 E10.01271
G1 X102.160 Y104.054 E10.05961
G1 X101.340 Y104.584 E10.13884
G1 X100.830 Y104.864 E10.18606
G1 X99.920 Y105.284 E10.26739
G1 X99.400 Y105.474 E10.31231
G1 X98.510 Y105.724 E10.38733
G1 X97.950 Y105.844 E10.43381
G1 X97.020 Y105.974 E10.51001
G1 X95.990 Y106.034 E10.59373
G1 X64.000 Y106.034 E13.18968
G1 X62.970 Y105.974 E13.27341
G1 X62.100 Y105.864 E13.34457
G1 X61.560 Y105.754 E13.38929
G1 X60.520 Y105.454 E13.47713
G1 X59.970 Y105.244 E13.52490
G1 X59.190 Y104.884 E13.59461
G1 X58.690 Y104.614 E13.64073
G1 X57.830 Y104.054 E13.72401
G1 X57.370 Y103.704 E13.77091
G1 X56.700 Y103.114 E13.84336
G1 X56.310 Y102.724 E13.88811
G1 X55.720 Y102.054 E13.96056
G1 X55.370 Y101.594 E14.00746
G1 X54.840 Y100.774 E14.08670
G1 X54.560 Y100.264 E14.13391
G1 X54.140 Y99.354 E14.21524
G1 X53.950 Y98.834 E14.26017
G1 X53.700 Y97.944 E14.33518
G1 X53.580 Y97.384 E14.38166
G1 X53.450 Y96.454 E14.45786
G1 X53.390 Y95.424 E14.54159
G1 X53.390 Y63.424 E17.13835
G1 X53.430 Y62.514 E17.21227
G1 X53.580 Y61.424 E17.30155
G1 X53.710 Y60.844 E17.34979
G1 X53.980 Y59.964 E17.42448
G1 X54.180 Y59.434 E17.47045
G1 X54.540 Y58.624 E17.54238
G1 X54.810 Y58.124 E17.58849
G1 X55.370 Y57.264 E17.67177
G1 X55.720 Y56.804 E17.71868
G1 X56.250 Y56.203 E17.78370
G1 F1800.000 E15.78370
G1 Z0.820 F7800.000
G92 E0
G1 X93.649 Y62.855
G1 Z0.320
G1 F1800.000 E2.00000
G1 X93.856 Y62.309 F540.000 E2.04737
G1 X94.187 Y61.829 E2.09475
G1 X94.624 Y61.442 E2.14212
G1 X95.141 Y61.170 E2.18950
G1 X95.708 Y61.030 E2.23687
G1 X96.292 Y61.030 E2.28424
G1 X96.859 Y61.170 E2.33162
G1 X97.376 Y61.441 E2.37899
G1 X97.813 Y61.829 E2.42637
G1 X98.144 Y62.309 E2.47374
G1 X98.351 Y62.855 E2.52112
G1 X98.422 Y63.434 E2.56849
G1 X98.351 Y64.014 E2.61587
G1 X98.144 Y64.560 E2.66324
G1 X97.813 Y65.040 E2.71061
G1 X97.376 Y65.427 E2.75799
G1 X96.859 Y65.699 E2.80536
G1 X96.292 Y65.838 E2.85274
G1 X95.708 Y65.838 E2.90011
G1 X95.141 Y65.699 E2.94749
G1 X94.624 Y65.427 E2.99486
G1 X94.187 Y65.040 E3.04224
G1 X93.856 Y64.560 E3.08961
G1 X93.649 Y64.014 E3.13698
G1 X93.578 Y63.434 E3.18436
G1 X93.638 Y62.946 E3.22431
G1 X94.245 Y63.002 F7800.000
G1 X94.400 Y62.595 F540.000 E3.25966
G1 X94.647 Y62.236 E3.29502
G1 X94.973 Y61.947 E3.33037
G1 X95.359 Y61.745 E3.36573
G1 X95.782 Y61.640 E3.40108
G1 X96.218 Y61.640 E3.43643
G1 X96.641 Y61.745 E3.47179
G1 X97.027 Y61.947 E3.50714
G1 X97.353 Y62.236 E3.54250
G1 X97.600 Y62.595 E3.57785
G1 X97.755 Y63.002 E3.61321
G1 X97.807 Y63.434 E3.64856
G1 X97.755 Y63.867 E3.68391
G1 X97.600 Y64.274 E3.71927
G1 X97.353 Y64.633 E3.75462
G1 X97.027 Y64.922 E3.78998
G1 X96.641 Y65.124 E3.82533
G1 X96.218 Y65.229 E3.86069
G1 X95.782 Y65.229 E3.89604
G1 X95.359 Y65.124 E3.93139
G1 X94.973 Y64.922 E3.96675
G1 X94.647 Y64.633 E4.00210
G1 X94.400 Y64.274 E4.03746
G1 X94.245 Y63.867 E4.07281
G1 X94.193 Y63.434 E4.10817
G1 X94.234 Y63.093 E4.13610
G1 X93.944 Y62.688 F7800.000
G1 X93.891 Y62.918
G1 X80.000 Y60.923
G1 X66.156 Y63.885
G1 X66.422 Y63.434
G1 X66.351 Y64.014 F540.000 E4.18347
G1 X66.144 Y64.560 E4.23084
G1 X65.813 Y65.040 E4.27822
G1 X65.376 Y65.427 E4.32559
G1 X64.859 Y65.699 E4.37297
G1 X64.428 Y65.805 E4.40898
G1 X64.292 Y65.838 E4.42034
G1 X63.708 Y65.838 E4.46772
G1 X63.141 Y65.699 E4.51509
G1 X62.624 Y65.427 E4.56247
G1 X62.187 Y65.040 E4.60984
G1 X61.856 Y64.560 E4.65721
G1 X61.698 Y64.145 E4.69323
G1 X61.649 Y64.014 E4.70459
G1 X61.578 Y63.434 E4.75196
G1 X61.649 Y62.855 E4.79934
G1 X61.806 Y62.440 E4.83535
G1 X61.856 Y62.309 E4.84671
G1 X62.187 Y61.829 E4.89409
G1 X62.624 Y61.441 E4.94146
G1 X63.141 Y61.170 E4.98883
G1 X63.708 Y61.030 E5.03621
G1 X64.292 Y61.030 E5.08358
G1 X64.859 Y61.170 E5.13096
G1 X65.376 Y61.441 E5.17833
G1 X65.813 Y61.829 E5.22571
G1 X66.144 Y62.309 E5.27308
G1 X66.351 Y62.855 E5.32046
G1 X66.411 Y63.344 E5.36041
G1 X65.807 Y63.434 F7800.000
G1 X65.755 Y63.867 F540.000 E5.39576
G1 X65.600 Y64.274 E5.43111
G1 X65.353 Y64.633 E5.46647
G1 X65.027 Y64.922 E5.50182
G1 X64.641 Y65.124 E5.53718
G1 X64.218 Y65.229 E5.57253
G1 X63.782 Y65.229 E5.60789
G1 X63.359 Y65.124 E5.64324
G1 X62.973 Y64.922 E5.67859
G1 X62.697 Y64.677 E5.70860
G1 X62.647 Y64.633 E5.71395
G1 X62.400 Y64.274 E5.74930
G1 X62.245 Y63.867 E5.78466
G1 X62.193 Y63.434 E5.82001
G1 X62.245 Y63.002 E5.85537
G1 X62.376 Y62.656 E5.88537
G1 X62.400 Y62.595 E5.89072
G1 X62.647 Y62.236 E5.92607
G1 X62.973 Y61.947 E5.96143
G1 X63.359 Y61.745 E5.99678
G1 X63.782 Y61.640 E6.03214
G1 X64.218 Y61.640 E6.06749
G1 X64.641 Y61.745 E6.10284
G1 X65.027 Y61.947 E6.13820
G1 X65.353 Y62.236 E6.17355
G1 X65.600 Y62.595 E6.20891
G1 X65.755 Y63.002 E6.24426
G1 X65.796 Y63.344 E6.27219
G1 X66.175 Y63.667 F7800.000
G1 X66.156 Y63.885
G1 X63.159 Y71.754
G1 X61.488 Y79.434
G1 X64.305 Y93.252
G1 X64.292 Y93.030
G1 X64.859 Y93.170 F540.000 E6.31957
G1 X65.252 Y93.376 E6.35558
G1 X65.376 Y93.442 E6.36694
G1 X65.813 Y93.829 E6.41432
G1 X66.144 Y94.309 E6.46169
G1 X66.351 Y94.855 E6.50906
G1 X66.422 Y95.434 E6.55644
G1 X66.368 Y95.875 E6.59245
G1 X66.351 Y96.014 E6.60381
G1 X66.144 Y96.560 E6.65119
G1 X65.813 Y97.040 E6.69856
G1 X65.376 Y97.427 E6.74593
G1 X64.859 Y97.699 E6.79331
G1 X64.292 Y97.838 E6.84068
G1 X63.708 Y97.838 E6.88806
G1 X63.141 Y97.699 E6.93543
G1 X62.748 Y97.493 E6.97145
G1 X62.624 Y97.427 E6.98281
G1 X62.187 Y97.040 E7.03018
G1 X61.856 Y96.560 E7.07755
G1 X61.649 Y96.014 E7.12493
G1 X61.578 Y95.434 E7.17231
G1 X61.649 Y94.855 E7.21968
G1 X61.856 Y94.309 E7.26705
G1 X62.187 Y93.829 E7.31443
G1 X62.624 Y93.441 E7.36181
G1 X63.141 Y93.170 E7.40918
G1 X63.708 Y93.030 E7.45655
G1 X64.200 Y93.030 E7.49650
G1 X64.218 Y93.640 F7800.000
G1 X64.641 Y93.745 F540.000 E7.53186
G1 X64.968 Y93.917 E7.56186
G1 X65.027 Y93.947 E7.56721
G1 X65.353 Y94.236 E7.60256
G1 X65.600 Y94.595 E7.63792
G1 X65.755 Y95.002 E7.67327
G1 X65.807 Y95.434 E7.70863
G1 X65.763 Y95.801 E7.73863
G1 X65.755 Y95.867 E7.74398
G1 X65.600 Y96.274 E7.77933
G1 X65.353 Y96.633 E7.81469
G1 X65.027 Y96.922 E7.85004
G1 X64.641 Y97.124 E7.88540
G1 X64.218 Y97.229 E7.92075
G1 X63.782 Y97.229 E7.95611
G1 X63.359 Y97.124 E7.99146
G1 X63.032 Y96.952 E8.02146
G1 X62.973 Y96.922 E8.02682
G1 X62.647 Y96.633 E8.06217
G1 X62.400 Y96.274 E8.09752
G1 X62.245 Y95.867 E8.13288
G1 X62.193 Y95.434 E8.16823
G1 X62.245 Y95.002 E8.20359
G1 X62.400 Y94.595 E8.23894
G1 X62.647 Y94.236 E8.27429
G1 X62.973 Y93.947 E8.30965
G1 X63.359 Y93.745 E8.34500
G1 X63.782 Y93.640 E8.38036
G1 X64.126 Y93.640 E8.40829
G1 X64.493 Y93.303 F7800.000
G1 X64.305 Y93.252
G1 X72.319 Y96.275
G1 X79.903 Y97.931
G1 X80.036 Y97.936
G1 X86.477 Y96.774
G1 X93.891 Y94.918
G1 X93.578 Y95.435
G1 X93.649 Y94.855 F540.000 E8.45567
G1 X93.856 Y94.309 E8.50304
G1 X94.187 Y93.829 E8.55042
G1 X94.624 Y93.441 E8.59779
G1 X95.141 Y93.170 E8.64516
G1 X95.708 Y93.030 E8.69254
G1 X96.292 Y93.030 E8.73991
G1 X96.859 Y93.170 E8.78729
G1 X97.376 Y93.442 E8.83466
G1 X97.813 Y93.829 E8.88203
G1 X98.144 Y94.309 E8.92941
G1 X98.351 Y94.855 E8.97679
G1 X98.422 Y95.434 E9.02415
G1 X98.351 Y96.014 E9.07153
G1 X98.144 Y96.560 E9.11891
G1 X97.813 Y97.040 E9.16628
G1 X97.376 Y97.427 E9.21365
G1 X96.859 Y97.699 E9.26103
G1 X96.292 Y97.838 E9.30840
G1 X95.708 Y97.838 E9.35578
G1 X95.141 Y97.699 E9.40315
G1 X94.624 Y97.427 E9.45053
G1 X94.187 Y97.040 E9.49790
G1 X93.856 Y96.560 E9.54527
G1 X93.649 Y96.014 E9.59265
G1 X93.589 Y95.525 E9.63260
G1 X94.193 Y95.434 F7800.000
G1 X94.245 Y95.002 F540.000 E9.66795
G1 X94.400 Y94.595 E9.70330
G1 X94.647 Y94.236 E9.73866
G1 X94.973 Y93.947 E9.77402
G1 X95.359 Y93.745 E9.80937
G1 X95.782 Y93.640 E9.84472
G1 X96.218 Y93.640 E9.88008
G1 X96.641 Y93.745 E9.91543
G1 X97.027 Y93.947 E9.95079
G1 X97.353 Y94.236 E9.98614
G1 X97.600 Y94.595 E10.02149
G1 X97.731 Y94.940 E10.05150
G1 X97.755 Y95.002 E10.05685
G1 X97.807 Y95.434 E10.09220
G1 X97.755 Y95.867 E10.12756
G1 X97.624 Y96.213 E10.15756
G1 X97.600 Y96.274 E10.16291
G1 X97.353 Y96.633 E10.19827
G1 X97.027 Y96.922 E10.23362
G1 X96.699 Y97.094 E10.26362
G1 X96.641 Y97.124 E10.26897
G1 X96.218 Y97.229 E10.30433
G1 X95.782 Y97.229 E10.33968
G1 X95.423 Y97.140 E10.36969
G1 X95.359 Y97.124 E10.37504
G1 X94.973 Y96.922 E10.41039
G1 X94.647 Y96.633 E10.44575
G1 X94.400 Y96.274 E10.48110
G1 X94.245 Y95.867 E10.51645
G1 X94.204 Y95.525 E10.54438
G1 X93.825 Y95.202 F7800.000
G1 X91.987 Y93.269
G1 X90.970 Y94.089 F378.000 E10.65042
G1 X89.897 Y94.834 E10.75646
G1 X88.773 Y95.501 E10.86250
G1 X87.604 Y96.085 E10.96853
G1 X86.397 Y96.586 E11.07457
G1 X85.157 Y96.998 E11.18061
G1 X83.847 Y97.329 E11.29030
G1 X82.605 Y97.553 E11.39268
G1 X81.306 Y97.693 E11.49871
G1 X80.000 Y97.740 E11.60475
G1 X78.694 Y97.693 E11.71079
G1 X77.395 Y97.553 E11.81683
G1 X76.109 Y97.321 E11.92287
G1 X74.843 Y96.998 E12.02890
G1 X73.603 Y96.586 E12.13494
G1 X72.396 Y96.085 E12.24098
G1 X71.227 Y95.501 E12.34702
G1 X70.066 Y94.808 E12.45671
G1 X69.030 Y94.089 E12.55908
G1 X68.013 Y93.269 E12.66512
G1 X67.056 Y92.378 E12.77116
G1 X66.166 Y91.422 E12.87720
G1 X65.346 Y90.404 E12.98324
G1 X64.601 Y89.331 E13.08927
G1 X63.934 Y88.207 E13.19531
G1 X63.332 Y86.997 E13.30500
G1 X62.849 Y85.831 E13.40738
G1 X62.436 Y84.592 E13.51342
G1 X62.113 Y83.326 E13.61945
G1 X61.876 Y81.995 E13.72915
G1 X61.741 Y80.740 E13.83152
G1 X61.695 Y79.434 E13.93756
G1 X61.741 Y78.129 E14.04360
G1 X61.881 Y76.829 E14.14963
G1 X62.113 Y75.543 E14.25567
G1 X62.451 Y74.234 E14.36537
G1 X62.849 Y73.037 E14.46774
G1 X63.349 Y71.830 E14.57378
G1 X63.934 Y70.662 E14.67981
G1 X64.601 Y69.538 E14.78585
G1 X65.346 Y68.465 E14.89189
G1 X66.166 Y67.447 E14.99793
G1 X67.056 Y66.491 E15.10397
G1 X68.013 Y65.600 E15.21000
G1 X69.030 Y64.780 E15.31604
G1 X70.142 Y64.012 E15.42574
G1 X71.227 Y63.368 E15.52811
G1 X72.396 Y62.784 E15.63415
G1 X73.603 Y62.283 E15.74018
G1 X74.887 Y61.860 E15.84988
G1 X76.109 Y61.548 E15.95225
G1 X77.395 Y61.316 E16.05829
G1 X78.694 Y61.176 E16.16433
G1 X80.000 Y61.129 E16.27037
G1 X81.306 Y61.176 E16.37640
G1 X82.605 Y61.316 E16.48244
G1 X83.891 Y61.548 E16.58848
G1 X85.157 Y61.871 E16.69452
G1 X86.397 Y62.283 E16.80055
G1 X87.604 Y62.784 E16.90659
G1 X88.773 Y63.368 E17.01263
G1 X89.897 Y64.035 E17.11867
G1 X90.970 Y64.780 E17.22471
G1 X91.987 Y65.600 E17.33074
G1 X92.944 Y66.491 E17.43678
G1 X93.834 Y67.447 E17.54282
G1 X94.654 Y68.465 E17.64886
G1 X95.399 Y69.538 E17.75490
G1 X96.066 Y70.662 E17.86093
G1 X96.651 Y71.830 E17.96697
G1 X97.151 Y73.037 E18.07301
G1 X97.564 Y74.277 E18.17905
G1 X97.887 Y75.543 E18.28508
G1 X98.124 Y76.874 E18.39478
G1 X98.259 Y78.129 E18.49715
G1 X98.305 Y79.434 E18.60319
G1 X98.259 Y80.740 E18.70923
G1 X98.119 Y82.040 E18.81526
G1 X97.876 Y83.369 E18.92496
G1 X97.564 Y84.592 E19.02733
G1 X97.151 Y85.831 E19.13337
G1 X96.651 Y87.039 E19.23941
G1 X96.066 Y88.207 E19.34545
G1 X95.399 Y89.331 E19.45148
G1 X94.654 Y90.404 E19.55752
G1 X93.834 Y91.422 E19.66356
G1 X92.944 Y92.378 E19.76960
G1 X92.054 Y93.206 E19.86821
G1 X92.096 Y93.869 F7800.000
G1 X93.121 Y93.922
G1 X93.301 Y94.052 F540.000 E19.88624
G1 X93.052 Y94.708 E19.94314
G1 X92.964 Y95.435 E20.00255
G1 X93.052 Y96.161 E20.06194
G1 X93.312 Y96.845 E20.12133
G1 X94.046 Y97.910 E20.22626
G1 X87.171 Y97.910 E20.78422
G1 X87.111 Y97.610 E20.80899
G1 X88.111 Y97.196 E20.89685
G1 X89.358 Y96.572 E21.00996
G1 X90.556 Y95.861 E21.12307
G1 X91.701 Y95.066 E21.23619
G1 X93.050 Y93.979 E21.37670
G1 X94.579 Y92.681 F7800.000
G1 X94.494 Y92.547 F540.000 E21.38952
G1 X95.631 Y91.136 E21.53663
G1 X96.426 Y89.991 E21.64975
G1 X97.137 Y88.792 E21.76285
G1 X97.761 Y87.546 E21.87596
G1 X98.176 Y86.545 E21.96383
G1 X98.475 Y86.605 E21.98860
G1 X98.475 Y93.601 E22.55629
G1 X97.725 Y92.936 E22.63764
G1 X97.077 Y92.596 E22.69703
G1 X96.366 Y92.421 E22.75643
G1 X95.634 Y92.421 E22.81583
G1 X94.667 Y92.659 E22.89662
G1 X93.090 Y92.524 F7800.000
G1 X97.326 Y85.944
G1 X98.508 Y79.435
G1 X97.339 Y72.957
G1 X95.161 Y65.276
G1 X94.579 Y66.188
G1 X95.634 Y66.448 F540.000 E22.98483
G1 X96.366 Y66.448 E23.04423
G1 X97.077 Y66.273 E23.10362
G1 X97.725 Y65.933 E23.16301
G1 X98.475 Y65.268 E23.24437
G1 X98.475 Y72.264 E23.81206
G1 X98.176 Y72.324 E23.83683
G1 X97.761 Y71.323 E23.92470
G1 X97.137 Y70.077 E24.03780
G1 X96.426 Y68.878 E24.15091
G1 X95.631 Y67.733 E24.26402
G1 X94.494 Y66.321 E24.41114
G1 X94.529 Y66.265 E24.41653
G1 X94.046 Y60.959 F7800.000
G1 X93.312 Y62.024 F540.000 E24.52147
G1 X93.052 Y62.708 E24.58085
G1 X92.964 Y63.435 E24.64025
G1 X93.052 Y64.161 E24.69965
G1 X93.301 Y64.817 E24.75655
G1 X93.121 Y64.947 E24.77458
G1 X91.701 Y63.803 E24.92253
G1 X90.556 Y63.008 E25.03564
G1 X89.358 Y62.297 E25.14875
G1 X88.111 Y61.673 E25.26185
G1 X87.111 Y61.259 E25.34972
G1 X87.171 Y60.959 E25.37449
G1 X93.955 Y60.959 E25.92503
G1 X65.954 Y60.959 F7800.000
G1 X72.829 Y60.959 F540.000 E26.48298
G1 X72.889 Y61.259 E26.50775
G1 X71.889 Y61.673 E26.59562
G1 X70.642 Y62.297 E26.70873
G1 X69.444 Y63.008 E26.82184
G1 X68.299 Y63.803 E26.93495
G1 X66.879 Y64.947 E27.08290
G1 X66.699 Y64.817 E27.10092
G1 X66.948 Y64.161 E27.15783
G1 X67.036 Y63.434 E27.21723
G1 X66.948 Y62.708 E27.27662
G1 X66.688 Y62.024 E27.33602
G1 X66.006 Y61.035 E27.43352
G1 X65.506 Y66.321 F7800.000
G1 X64.369 Y67.733 F540.000 E27.58063
G1 X63.574 Y68.878 E27.69374
G1 X62.863 Y70.077 E27.80685
G1 X62.239 Y71.323 E27.91996
G1 X61.824 Y72.324 E28.00783
G1 X61.525 Y72.264 E28.03260
G1 X61.525 Y65.268 E28.60029
G1 X62.275 Y65.933 E28.68164
G1 X62.923 Y66.273 E28.74104
G1 X63.634 Y66.448 E28.80043
G1 X64.366 Y66.448 E28.85983
G1 X65.421 Y66.188 E28.94804
G1 X65.457 Y66.244 E28.95343
G1 X66.913 Y66.347 F7800.000
G1 X63.159 Y71.754
G1 X61.488 Y79.434
G1 X63.159 Y87.115
G1 X61.525 Y86.605
G1 X61.824 Y86.545 F540.000 E28.97820
G1 X62.239 Y87.546 E29.06607
G1 X62.863 Y88.792 E29.17918
G1 X63.574 Y89.991 E29.29229
G1 X64.369 Y91.136 E29.40540
G1 X65.506 Y92.547 E29.55251
G1 X65.421 Y92.681 E29.56533
G1 X64.366 Y92.421 E29.65354
G1 X63.634 Y92.421 E29.71294
